X: 1
T: Kristin's Hornpipe
P: piffero primo a0171
O: John Benoit
%R: hornpipe, slide
F: http://ancients.sudburymuster.org/mus/sng/pdf/kristinsC0.pdf
Z: 2020 John Chambers <jc:trillian.mit.edu>
M: 12/8
L: 1/8
K: Bm
f2e |\
d2B BcB F2B dcB | c2A ABA E2A cBA |\
B2G GAG D2G BAG | A2E ABc ^ABc f2e |\
d2B BcB F2B dcB |
c2A ABA E2A cBA |\
B2G B2d cBA c2e | d2B cB^A B3 :: f2e |\
d2B f2B dcB f2B | c2A e2A cBA e2A |
B2G d2G BAG d2G | F2f ^F2f ^A2f c2e |\
d2B f2B dcB f2B | c2A e2A cBA e2A |\
B2G B2d cBA c2e | d2B cB^A B3 :|
